X:206
T: In der Heimat ist es schn (3-51), S. 135f
N: K1181
O: Luxemburg
S: KINTZELE, Guillaume: An der Ucht, Bd. 3 Luxemburg 1928]
N: in der Quelle mit einer 2. Stimme versehen
R: Heimatlied]
M: 3/4
L: 1/16
K: C
E3F | G6E2c3B | A8
A3G | F6E2F3A | G8
E3F | G6E2c3B | B2A2A4
(3A2B2c2 | B6G2(3^F2G2A2 | A2G2G3F
E3F | G6A2B2c2 | A8
c2A2 | A2G2G4B2d2 | e4c4
(3c2B2A2 | A2G2G4B2d2 | c8

@@@ Tune index: 8260
